X:435
T:Texas Gales
C:Traditional
N:Transcribed by Timothy R Lee
R:bluegrass
L:1/8
Q:1/4=200
M:4/4
K:C
c2 G2 A2 B2 |: "C"[c2G2E2C2] c2 "G7"Bc dB | "C"cd cA GF ED | CE Gc "G7"Bc dB | 
"C"cd cA (3GAG B2 | "C"[e2c2G2] c2 "G7"Bc dB | "C"cd cA G2 A_B |1 B"G7"A G^D EG E=D | 
"C"CD ^DE FG AB :|2 "G7"BA "G7"GB AG AB | "C"cB cd c4 |: "C"de g2 g2 ge | "C"ga ge dc3 | 
"F"eg2e g2 e2 | "F"ea2b a4 | "C"de g2 g2 ge | "C"ga ge dc AG | "G7"G2 GG AG AB | 
"C"cA GE C4 :|: CB, "C"CD "Cpart"EC DE | "F"FE FG AF GA | "G7"BA Bc dB cd | "G7"cd cA GF ED | 
"C"CB, CD EC DE | "F"FE FG AG FA |1 BA "G7"GB AG A_B | "C"cA GE C2 A,B, :|2 B"G7"A Bc dB c"C"d | 
c8 | "Cpart variation"C2 E2 G2 E2 | F2 F2 AG FA | GA Bd ag ed | ce ga g2 A,B, | 
C2 E2 G2 E2 | FE FG AG FA | BA GB AG A_B | cA GE C2 A,B, | z8 | z8 | 


